X: 43422
T: Y Deryn Pur
R: waltz
M: 3/4
K: Gmajor
d2|g4 f2|e4 d2|B2 d4|G4 F2|E2 G4|F3 G A2|G2 G4-|G4 d2|
g4 f2|e4 d2|B2 d4|G4 F2|E3 F G2|F3 G A2|G6-|G4||
d2|G4 G2|B2 d4|d4 c2|B2 d4|d4 B2|g4 f2|e4 d2|c2 B4|
c4 A2|c2 B4|c4 A2|c2 B2 B2|cd e4|d2 B2 G2|B4 A2|G2 F2 G2|
E4 F2|G2 B4|A4 G2|G4 F2|E3 F G2|F3 G A2|G6-|G4||

